img/franchise-download.svg

<svg width="50" height="50" viewBox="0 0 50 50" fill="none" xmlns="http://www.w3.org/2000/svg">
<path fill-rule="evenodd" clip-rule="evenodd" d="M25 15C25.5523 15 26 15.4477 26 16V25.5858L29.2929 22.2929C29.6834 21.9024 30.3166 21.9024 30.7071 22.2929C31.0976 22.6834 31.0976 23.3166 30.7071 23.7071L25.7071 28.7071C25.3166 29.0976 24.6834 29.0976 24.2929 28.7071L19.2929 23.7071C18.9024 23.3166 18.9024 22.6834 19.2929 22.2929C19.6834 21.9024 20.3166 21.9024 20.7071 22.2929L24 25.5858V16C24 15.4477 24.4477 15 25 15ZM16 25C16.5523 25 17 25.4477 17 26V30C17 31.6569 18.3431 33 20 33H30C31.6569 33 33 31.6569 33 30V26C33 25.4477 33.4477 25 34 25C34.5523 25 35 25.4477 35 26V30C35 32.7614 32.7614 35 30 35H20C17.2386 35 15 32.7614 15 30V26C15 25.4477 15.4477 25 16 25Z" fill="black" fill-opacity="0.2"/>
<path d="M25 49C11.7452 49 1 38.2548 1 25H-1C-1 39.3594 10.6406 51 25 51V49ZM49 25C49 38.2548 38.2548 49 25 49V51C39.3594 51 51 39.3594 51 25H49ZM25 1C38.2548 1 49 11.7452 49 25H51C51 10.6406 39.3594 -1 25 -1V1ZM25 -1C10.6406 -1 -1 10.6406 -1 25H1C1 11.7452 11.7452 1 25 1V-1Z" fill="black" fill-opacity="0.2"/>
</svg>

<svg width="50" height="50" fill="none" xmlns="http://www.w3.org/2000/svg"><path fill-rule="evenodd" clip-rule="evenodd" d="M25 15a1 1 0 011 1v9.586l3.293-3.293a1 1 0 011.414 1.414l-5 5a1 1 0 01-1.414 0l-5-5a1 1 0 011.414-1.414L24 25.586V16a1 1 0 011-1zm-9 10a1 1 0 011 1v4a3 3 0 003 3h10a3 3 0 003-3v-4a1 1 0 112 0v4a5 5 0 01-5 5H20a5 5 0 01-5-5v-4a1 1 0 011-1z" fill="#000" fill-opacity=".2"/><path d="M25 49C11.745 49 1 38.255 1 25h-2c0 14.36 11.64 26 26 26v-2zm24-24c0 13.255-10.745 24-24 24v2c14.36 0 26-11.64 26-26h-2zM25 1c13.255 0 24 10.745 24 24h2C51 10.64 39.36-1 25-1v2zm0-2C10.64-1-1 10.64-1 25h2C1 11.745 11.745 1 25 1v-2z" fill="#000" fill-opacity=".2"/></svg>
